chili-hot-outline.svg

<svg fill="currentColor" viewBox="0 0 24 24"><path d="M10.94 4.7A.99.99 0 0 0 10 4V2c.77 0 1.47.29 2 .77V4c.45 0 .81.3.94.7-1.11.38-2.01 1.35-2.51 2.62l-1.57-.9C9.38 5.6 10.11 5 10.94 4.7M10 11c0-.77.23-1.5.6-2.09l-1.34-.76C8.5 8.44 8 9.16 8 10v1c0 7.05 4.9 9.8 7.03 10.66C12.41 19.62 10 16.2 10 11M8.94 4.7A.99.99 0 0 0 8 4V2.77C7.47 2.29 6.77 2 6 2v2c.45 0 .81.3.94.7-.83.3-1.56.9-2.08 1.72l1.57.9c.5-1.27 1.4-2.24 2.51-2.62M6 11c0-.77.23-1.5.6-2.09l-1.34-.76C4.5 8.44 4 9.16 4 10v1c0 7.05 4.9 9.8 7.03 10.66C8.41 19.62 6 16.2 6 11m14-1v12s-8-2-8-11v-1c0-.73.4-1.37 1-1.72l1.25.72L16 8l1.75 1L19 8.28c.6.35 1 .99 1 1.72m-2 8.87v-7.42l-2-1.15-2 1.13c.17 4.01 2.23 6.26 4 7.44M12.73 6.63l1.52.87 1.75-1 1.75 1 1.52-.87c-.55-.97-1.36-1.69-2.3-1.98A2.996 2.996 0 0 0 14 2v2c.44 0 .8.29.94.69-.91.31-1.68 1.01-2.21 1.94"/></svg>

<svg  viewBox="0 0 24 24" fill="currentColor"><path  d="M10.94 4.7C10.81 4.3 10.45 4 10 4V2C10.77 2 11.47 2.29 12 2.77V4C12.45 4 12.81 4.3 12.94 4.7C11.83 5.08 10.93 6.05 10.43 7.32L8.86 6.42C9.38 5.6 10.11 5 10.94 4.7M10 11C10 10.23 10.23 9.5 10.6 8.91L9.26 8.15C8.5 8.44 8 9.16 8 10V11C8 18.05 12.9 20.8 15.03 21.66C12.41 19.62 10 16.2 10 11M8.94 4.7C8.81 4.3 8.45 4 8 4V2.77C7.47 2.29 6.77 2 6 2V4C6.45 4 6.81 4.3 6.94 4.7C6.11 5 5.38 5.6 4.86 6.42L6.43 7.32C6.93 6.05 7.83 5.08 8.94 4.7M6 11C6 10.23 6.23 9.5 6.6 8.91L5.26 8.15C4.5 8.44 4 9.16 4 10V11C4 18.05 8.9 20.8 11.03 21.66C8.41 19.62 6 16.2 6 11M20 10V22C20 22 12 20 12 11V10C12 9.27 12.4 8.63 13 8.28L14.25 9L16 8L17.75 9L19 8.28C19.6 8.63 20 9.27 20 10M18 18.87V11.45L16 10.3L14 11.43C14.17 15.44 16.23 17.69 18 18.87M12.73 6.63L14.25 7.5L16 6.5L17.75 7.5L19.27 6.63C18.72 5.66 17.91 4.94 16.97 4.65C16.79 3.16 15.54 2 14 2V4C14.44 4 14.8 4.29 14.94 4.69C14.03 5 13.26 5.7 12.73 6.63Z"/></svg>
